Gurmukhi/0A2A.svg

<svg enable-background="new 0 0 336 592" viewBox="0 0 336 592" xmlns="http://www.w3.org/2000/svg"><path d="m79.786713 210.116089c-1.194474-3.170151-2.245697-5.975922-3.315979-8.774384-1.434914-3.751785-.08963-6.075958 3.838211-6.11177 15.156868-.138153 30.315735-.050278 45.473861-.059388 2.446671-.001464 3.984375 1.375962 5.261811 3.256821 11.849899 17.447678 21.140228 35.886582 21.622589 57.567169.368912 16.58133-5.772263 30.837036-16.147186 43.484711-4.828125 5.885834-5.347809 4.562805.115768 10.868897 18.87204 21.782165 48.917404 23.708068 70.271698 4.607543 3.293152-2.945587 4.91626-6.173889 4.891464-10.825683-.181946-34.149292-.016952-68.300385-.184494-102.449814-.022735-4.634888 1.004532-6.399475 6.042435-6.305649 15.135956.281967 30.282822.069702 45.424042-.084976 3.943695-.040298 6.08081 1.604691 7.175384 5.367813 1.019196 3.503922 2.700104 6.810822 3.818878 10.291489 1.324921 4.121933-.051849 6.075516-4.409057 6.147796-7.827423.129883-15.658493.030182-23.488022.041932-8.000794.012008-8.008682.020187-8.007935 7.774749.00502 52.141617.013962 104.283219.019959 156.42482.000213 1.832398.067459 3.669861-.042603 5.496155-.284195 4.715973-2.335327 6.119232-6.452835 4.146515-5.705475-2.733582-11.24855-5.805206-16.942932-8.563232-2.77388-1.343537-3.083221-3.556305-3.067093-6.201905.057922-9.495056.02182-18.990722.021332-28.486145-.000092-1.798523 0-3.597015 0-5.311371-.776703-.160064-1.202957-.389282-1.380509-.264495-25.38388 17.836853-58.372879 8.453247-79.371826-10.363373-10.149933-9.095063-18.38227-19.647644-24.702781-31.771912-2.144806-4.114258-2.056214-6.81192 1.331222-10.410034 9.59478-10.191528 16.995819-21.805603 19.479485-35.916794 2.054306-11.671768.32827-22.819839-4.980088-33.458939-1.266937-2.53923-3.101829-3.113082-5.635871-3.094909-8.995217.064575-18.012825-.348496-26.978829.16803-5.531242.318634-8.477829-1.580918-9.680099-7.189667z"/></svg>

<svg version="1.1" id="Layer_1" xmlns="http://www.w3.org/2000/svg" xmlns:xlink="http://www.w3.org/1999/xlink" x="0px" y="0px"
	 width="100%" viewBox="0 0 336 592" enable-background="new 0 0 336 592" xml:space="preserve">
<path fill="#000000" opacity="1.000000" stroke="none" 
	d="
M79.786713,210.116089 
	C78.592239,206.945938 77.541016,204.140167 76.470734,201.341705 
	C75.035820,197.589920 76.381104,195.265747 80.308945,195.229935 
	C95.465813,195.091782 110.624680,195.179657 125.782806,195.170547 
	C128.229477,195.169083 129.767181,196.546509 131.044617,198.427368 
	C142.894516,215.875046 152.184845,234.313950 152.667206,255.994537 
	C153.036118,272.575867 146.894943,286.831573 136.520020,299.479248 
	C131.691895,305.365082 131.172211,304.042053 136.635788,310.348145 
	C155.507828,332.130310 185.553192,334.056213 206.907486,314.955688 
	C210.200638,312.010101 211.823746,308.781799 211.798950,304.130005 
	C211.617004,269.980713 211.781998,235.829620 211.614456,201.680191 
	C211.591721,197.045303 212.618988,195.280716 217.656891,195.374542 
	C232.792847,195.656509 247.939713,195.444244 263.080933,195.289566 
	C267.024628,195.249268 269.161743,196.894257 270.256317,200.657379 
	C271.275513,204.161301 272.956421,207.468201 274.075195,210.948868 
	C275.400116,215.070801 274.023346,217.024384 269.666138,217.096664 
	C261.838715,217.226547 254.007645,217.126846 246.178116,217.138596 
	C238.177322,217.150604 238.169434,217.158783 238.170181,224.913345 
	C238.175201,277.054962 238.184143,329.196564 238.190140,381.338165 
	C238.190353,383.170563 238.257599,385.008026 238.147537,386.834320 
	C237.863342,391.550293 235.812210,392.953552 231.694702,390.980835 
	C225.989227,388.247253 220.446152,385.175629 214.751770,382.417603 
	C211.977890,381.074066 211.668549,378.861298 211.684677,376.215698 
	C211.742599,366.720642 211.706497,357.224976 211.706009,347.729553 
	C211.705917,345.931030 211.706009,344.132538 211.706009,342.418182 
	C210.929306,342.258118 210.503052,342.028900 210.325500,342.153687 
	C184.941620,359.990540 151.952621,350.606934 130.953674,331.790314 
	C120.803741,322.695251 112.571404,312.142670 106.250893,300.018402 
	C104.106087,295.904144 104.194679,293.206482 107.582115,289.608368 
	C117.176895,279.416840 124.577934,267.802765 127.061600,253.691574 
	C129.115906,242.019806 127.389870,230.871735 122.081512,220.232635 
	C120.814575,217.693405 118.979683,217.119553 116.445641,217.137726 
	C107.450424,217.202301 98.432816,216.789230 89.466812,217.305756 
	C83.935570,217.624390 80.988983,215.724838 79.786713,210.116089 
z"/>
</svg>
